Newaita-dark/apps/22/kmix.svg

<?xml version="1.0" encoding="UTF-8"?>
<svg xmlns="http://www.w3.org/2000/svg" xmlns:xlink="http://www.w3.org/1999/xlink" width="22pt" height="22pt" viewBox="0 0 22 22" version="1.1">
<defs>
<linearGradient id="linear0" gradientUnits="userSpaceOnUse" x1="254.000031" y1="222.916656" x2="254.000046" y2="249.374985" gradientTransform="matrix(0.0429729,0,0,0.0429729,-0.00000262285,10.376155)">
<stop offset="0" style="stop-color:rgb(0%,0%,0%);stop-opacity:0.27451;"/>
<stop offset="1" style="stop-color:rgb(0%,0%,0%);stop-opacity:0;"/>
</linearGradient>
<radialGradient id="radial0" gradientUnits="userSpaceOnUse" cx="450.908936" cy="189.579361" fx="450.908936" fy="189.579361" r="21.166656" gradientTransform="matrix(0.000000119742,-0.0537161,-0.0966889,-0.0000000698078,34.475433,44.631385)">
<stop offset="0" style="stop-color:rgb(0%,0%,0%);stop-opacity:0.313725;"/>
<stop offset="0.222222" style="stop-color:rgb(0%,0%,0%);stop-opacity:0.27451;"/>
<stop offset="1" style="stop-color:rgb(0%,0%,0%);stop-opacity:0;"/>
</radialGradient>
<radialGradient id="radial1" gradientUnits="userSpaceOnUse" cx="450.908936" cy="189.579361" fx="450.908936" fy="189.579361" r="21.166656" gradientTransform="matrix(-0.000000119742,0.0537161,0.0966889,0.0000000698078,-12.645221,-4.265548)">
<stop offset="0" style="stop-color:rgb(0%,0%,0%);stop-opacity:0.313725;"/>
<stop offset="0.222222" style="stop-color:rgb(0%,0%,0%);stop-opacity:0.27451;"/>
<stop offset="1" style="stop-color:rgb(0%,0%,0%);stop-opacity:0;"/>
</radialGradient>
<radialGradient id="radial2" gradientUnits="userSpaceOnUse" cx="450.908936" cy="189.579361" fx="450.908936" fy="189.579361" r="21.166656" gradientTransform="matrix(-0.000000119742,-0.0537161,0.0966889,-0.0000000698078,-12.645221,44.631385)">
<stop offset="0" style="stop-color:rgb(0%,0%,0%);stop-opacity:0.313725;"/>
<stop offset="0.222222" style="stop-color:rgb(0%,0%,0%);stop-opacity:0.27451;"/>
<stop offset="1" style="stop-color:rgb(0%,0%,0%);stop-opacity:0;"/>
</radialGradient>
<radialGradient id="radial3" gradientUnits="userSpaceOnUse" cx="450.908936" cy="189.579361" fx="450.908936" fy="189.579361" r="21.166656" gradientTransform="matrix(0.000000119742,0.0537161,-0.0966889,0.0000000698078,34.475432,-4.265549)">
<stop offset="0" style="stop-color:rgb(0%,0%,0%);stop-opacity:0.313725;"/>
<stop offset="0.222222" style="stop-color:rgb(0%,0%,0%);stop-opacity:0.27451;"/>
<stop offset="1" style="stop-color:rgb(0%,0%,0%);stop-opacity:0;"/>
</radialGradient>
<linearGradient id="linear1" gradientUnits="userSpaceOnUse" x1="254" y1="254.666672" x2="254" y2="32.416664" >
<stop offset="0" style="stop-color:rgb(38.039216%,38.039216%,38.039216%);stop-opacity:1;"/>
<stop offset="1" style="stop-color:rgb(25.882353%,25.882353%,25.882353%);stop-opacity:1;"/>
</linearGradient>
<linearGradient id="linear2" gradientUnits="userSpaceOnUse" x1="960" y1="1695.118164" x2="960" y2="175.118134" >
<stop offset="0" style="stop-color:rgb(56.470588%,64.313725%,68.235294%);stop-opacity:1;"/>
<stop offset="1" style="stop-color:rgb(81.176471%,84.705882%,86.27451%);stop-opacity:1;"/>
</linearGradient>
<linearGradient id="linear3" gradientUnits="userSpaceOnUse" x1="254" y1="-142.208328" x2="254" y2="207.041672" >
<stop offset="0" style="stop-color:rgb(38.039216%,38.039216%,38.039216%);stop-opacity:1;"/>
<stop offset="1" style="stop-color:rgb(25.882353%,25.882353%,25.882353%);stop-opacity:1;"/>
</linearGradient>
<linearGradient id="linear4" gradientUnits="userSpaceOnUse" x1="243.416672" y1="-126.333344" x2="243.416672" y2="191.166672" >
<stop offset="0" style="stop-color:rgb(26.666667%,54.117647%,100%);stop-opacity:1;"/>
<stop offset="1" style="stop-color:rgb(50.980392%,69.411765%,100%);stop-opacity:1;"/>
</linearGradient>
<linearGradient id="linear5" gradientUnits="userSpaceOnUse" x1="254" y1="-20.5" x2="254" y2="85.333336" >
<stop offset="0" style="stop-color:rgb(38.039216%,38.039216%,38.039216%);stop-opacity:1;"/>
<stop offset="1" style="stop-color:rgb(25.882353%,25.882353%,25.882353%);stop-opacity:1;"/>
</linearGradient>
</defs>
<g id="surface1">
<path style=" stroke:none;fill-rule:nonzero;fill:url(#linear0);" d="M 5.457031 20.183594 L 16.371094 20.183594 L 16.371094 21.09375 L 5.457031 21.09375 Z M 5.457031 20.183594 "/>
<path style=" stroke:none;fill-rule:nonzero;fill:url(#radial0);" d="M 16.371094 20.183594 L 18.191406 20.183594 L 18.191406 19.273438 L 16.371094 19.273438 Z M 16.371094 20.183594 "/>
<path style=" stroke:none;fill-rule:nonzero;fill:url(#radial1);" d="M 5.457031 20.183594 L 3.636719 20.183594 L 3.636719 21.09375 L 5.457031 21.09375 Z M 5.457031 20.183594 "/>
<path style=" stroke:none;fill-rule:nonzero;fill:url(#radial2);" d="M 5.457031 20.183594 L 3.636719 20.183594 L 3.636719 19.273438 L 5.457031 19.273438 Z M 5.457031 20.183594 "/>
<path style=" stroke:none;fill-rule:nonzero;fill:url(#radial3);" d="M 16.371094 20.183594 L 18.191406 20.183594 L 18.191406 21.09375 L 16.371094 21.09375 Z M 16.371094 20.183594 "/>
<path style="fill-rule:nonzero;fill:url(#linear1);stroke-width:3;stroke-linecap:round;stroke-linejoin:miter;stroke:rgb(12.941177%,12.941177%,12.941177%);stroke-opacity:1;stroke-miterlimit:4;" d="M 105.808078 32.430917 L 402.143415 32.430917 C 413.869568 32.430917 423.323211 41.88456 423.323211 53.610713 L 423.323211 233.502625 C 423.323211 245.228778 413.869568 254.68242 402.143415 254.68242 L 105.808078 254.68242 C 94.172825 254.68242 84.628282 245.228778 84.628282 233.502625 L 84.628282 53.610713 C 84.628282 41.88456 94.172825 32.430917 105.808078 32.430917 Z M 105.808078 32.430917 " transform="matrix(0.0429729,0,0,0.0429729,0,9.239163)"/>
<path style="fill-rule:nonzero;fill:url(#linear2);stroke-width:11.338583;stroke-linecap:round;stroke-linejoin:miter;stroke:rgb(12.941177%,12.941177%,12.941177%);stroke-opacity:1;stroke-miterlimit:4;" d="M 959.908316 175.215868 C 778.508316 175.215868 612.224982 238.087459 481.671951 343.560566 L 450.751496 312.983672 C 419.487481 281.376096 368.984071 281.376096 337.720056 312.983672 C 306.456041 344.247687 306.456041 394.751096 337.720056 426.015111 L 368.640511 456.935566 C 263.167404 587.145036 199.952252 753.428371 199.952252 935.171932 C 199.952252 1116.571933 263.167404 1282.855267 368.640511 1413.408298 L 337.720056 1444.328752 C 306.456041 1475.592768 306.456041 1526.096177 337.720056 1557.360192 C 368.984071 1588.624208 419.487481 1588.624208 450.751496 1557.360192 L 481.671951 1526.439738 C 612.224982 1631.912844 778.508316 1695.127996 959.908316 1695.127996 C 1141.651878 1695.127996 1307.935212 1631.912844 1438.488243 1526.439738 L 1469.065137 1557.360192 C 1500.329152 1588.624208 1550.832562 1588.624208 1582.096577 1557.360192 C 1613.704153 1526.096177 1613.704153 1475.592768 1582.096577 1444.328752 L 1551.519683 1413.408298 C 1656.992789 1282.855267 1719.86438 1116.571933 1719.86438 935.171932 C 1719.86438 753.428371 1656.992789 587.145036 1551.519683 456.935566 L 1582.096577 426.015111 C 1613.704153 394.751096 1613.704153 344.247687 1582.096577 312.983672 C 1550.832562 281.376096 1500.329152 281.376096 1469.065137 312.983672 L 1438.488243 343.560566 C 1307.935212 238.087459 1141.651878 175.215868 959.908316 175.215868 Z M 959.908316 175.215868 " transform="matrix(0.0113699,0,0,0.0113699,0.000000241209,0.00000047687)"/>
<path style="fill-rule:nonzero;fill:url(#linear3);stroke-width:3;stroke-linecap:round;stroke-linejoin:miter;stroke:rgb(12.941177%,12.941177%,12.941177%);stroke-opacity:1;stroke-miterlimit:4;" d="M 253.975747 -142.188771 C 350.421082 -142.188771 428.595435 -66.377829 428.595435 27.158693 L 428.595435 37.703141 C 428.595435 131.239663 350.421082 207.050605 253.975747 207.050605 C 157.530411 207.050605 79.356058 131.239663 79.356058 37.703141 L 79.356058 27.158693 C 79.356058 -66.377829 157.530411 -142.188771 253.975747 -142.188771 Z M 253.975747 -142.188771 " transform="matrix(0.0429729,0,0,0.0429729,0,9.239163)"/>
<path style="fill-rule:nonzero;fill:url(#linear4);stroke-width:3;stroke-linecap:round;stroke-linejoin:miter;stroke:rgb(12.941177%,12.941177%,12.941177%);stroke-opacity:1;stroke-miterlimit:4;" d="M 253.975747 -126.3721 C 341.694643 -126.3721 412.778763 -55.287979 412.778763 32.430917 C 412.778763 120.058913 341.694643 191.143033 253.975747 191.143033 C 166.347751 191.143033 95.26363 120.058913 95.26363 32.430917 C 95.26363 -55.287979 166.347751 -126.3721 253.975747 -126.3721 Z M 253.975747 -126.3721 " transform="matrix(0.0429729,0,0,0.0429729,0,9.239163)"/>
<path style="fill-rule:nonzero;fill:url(#linear5);stroke-width:3;stroke-linecap:round;stroke-linejoin:miter;stroke:rgb(12.941177%,12.941177%,12.941177%);stroke-opacity:1;stroke-miterlimit:4;" d="M 253.975747 -20.473122 C 283.245679 -20.473122 306.879785 3.160985 306.879785 32.430917 C 306.879785 61.609949 283.245679 85.334956 253.975747 85.334956 C 224.796715 85.334956 201.071708 61.609949 201.071708 32.430917 C 201.071708 3.160985 224.796715 -20.473122 253.975747 -20.473122 Z M 253.975747 -20.473122 " transform="matrix(0.0429729,0,0,0.0429729,0,9.239163)"/>
</g>
</svg>

<svg xmlns="http://www.w3.org/2000/svg" width="22pt" height="22pt" viewBox="0 0 22 22"><defs><linearGradient id="a" gradientUnits="userSpaceOnUse" x1="254" y1="222.917" x2="254" y2="249.375" gradientTransform="matrix(.04297 0 0 .04297 0 10.376)"><stop offset="0" stop-opacity=".275"/><stop offset="1" stop-opacity="0"/></linearGradient><radialGradient id="b" gradientUnits="userSpaceOnUse" cx="450.909" cy="189.579" fx="450.909" fy="189.579" r="21.167" gradientTransform="matrix(0 -.05372 -.09669 0 34.475 44.631)"><stop offset="0" stop-opacity=".314"/><stop offset=".222" stop-opacity=".275"/><stop offset="1" stop-opacity="0"/></radialGradient><radialGradient id="c" gradientUnits="userSpaceOnUse" cx="450.909" cy="189.579" fx="450.909" fy="189.579" r="21.167" gradientTransform="matrix(0 .05372 .09669 0 -12.645 -4.266)"><stop offset="0" stop-opacity=".314"/><stop offset=".222" stop-opacity=".275"/><stop offset="1" stop-opacity="0"/></radialGradient><radialGradient id="d" gradientUnits="userSpaceOnUse" cx="450.909" cy="189.579" fx="450.909" fy="189.579" r="21.167" gradientTransform="matrix(0 -.05372 .09669 0 -12.645 44.631)"><stop offset="0" stop-opacity=".314"/><stop offset=".222" stop-opacity=".275"/><stop offset="1" stop-opacity="0"/></radialGradient><radialGradient id="e" gradientUnits="userSpaceOnUse" cx="450.909" cy="189.579" fx="450.909" fy="189.579" r="21.167" gradientTransform="matrix(0 .05372 -.09669 0 34.475 -4.266)"><stop offset="0" stop-opacity=".314"/><stop offset=".222" stop-opacity=".275"/><stop offset="1" stop-opacity="0"/></radialGradient><linearGradient id="f" gradientUnits="userSpaceOnUse" x1="254" y1="254.667" x2="254" y2="32.417"><stop offset="0" stop-color="#616161"/><stop offset="1" stop-color="#424242"/></linearGradient><linearGradient id="g" gradientUnits="userSpaceOnUse" x1="960" y1="1695.118" x2="960" y2="175.118"><stop offset="0" stop-color="#90a4ae"/><stop offset="1" stop-color="#cfd8dc"/></linearGradient><linearGradient id="h" gradientUnits="userSpaceOnUse" x1="254" y1="-142.208" x2="254" y2="207.042"><stop offset="0" stop-color="#616161"/><stop offset="1" stop-color="#424242"/></linearGradient><linearGradient id="i" gradientUnits="userSpaceOnUse" x1="243.417" y1="-126.333" x2="243.417" y2="191.167"><stop offset="0" stop-color="#448aff"/><stop offset="1" stop-color="#82b1ff"/></linearGradient><linearGradient id="j" gradientUnits="userSpaceOnUse" x1="254" y1="-20.5" x2="254" y2="85.333"><stop offset="0" stop-color="#616161"/><stop offset="1" stop-color="#424242"/></linearGradient></defs><path d="M5.457 20.184h10.914v.91H5.457zm0 0" fill="url(#a)"/><path d="M16.371 20.184h1.82v-.91h-1.82zm0 0" fill="url(#b)"/><path d="M5.457 20.184h-1.82v.91h1.82zm0 0" fill="url(#c)"/><path d="M5.457 20.184h-1.82v-.91h1.82zm0 0" fill="url(#d)"/><path d="M16.371 20.184h1.82v.91h-1.82zm0 0" fill="url(#e)"/><path d="M105.808 32.43h296.335a21.143 21.143 0 0 1 21.18 21.18v179.893a21.143 21.143 0 0 1-21.18 21.18H105.808c-11.635 0-21.18-9.454-21.18-21.18V53.61c0-11.726 9.545-21.18 21.18-21.18zm0 0" transform="matrix(.04297 0 0 .04297 0 9.24)" fill="url(#f)" stroke-width="3" stroke-linecap="round" stroke="#212121"/><path d="M959.908 175.216c-181.4 0-347.683 62.871-478.236 168.345l-30.92-30.577a79.221 79.221 0 0 0-113.032 0c-31.264 31.264-31.264 81.767 0 113.031l30.92 30.92c-105.473 130.21-168.688 296.493-168.688 478.237 0 181.4 63.215 347.683 168.689 478.236l-30.92 30.92c-31.265 31.265-31.265 81.768 0 113.032 31.263 31.264 81.766 31.264 113.03 0l30.921-30.92c130.553 105.473 296.836 168.688 478.236 168.688 181.744 0 348.027-63.215 478.58-168.688l30.577 30.92c31.264 31.264 81.768 31.264 113.032 0a79.221 79.221 0 0 0 0-113.031l-30.577-30.92c105.473-130.554 168.344-296.837 168.344-478.237 0-181.744-62.871-348.027-168.344-478.236l30.577-30.92a79.221 79.221 0 0 0 0-113.032 79.221 79.221 0 0 0-113.032 0l-30.577 30.577c-130.553-105.474-296.836-168.345-478.58-168.345zm0 0" transform="matrix(.01137 0 0 .01137 0 0)" fill="url(#g)" stroke-width="11.339" stroke-linecap="round" stroke="#212121"/><path d="M253.976-142.189c96.445 0 174.62 75.811 174.62 169.348v10.544c0 93.537-78.175 169.348-174.62 169.348-96.446 0-174.62-75.811-174.62-169.348V27.16c0-93.537 78.174-169.348 174.62-169.348zm0 0" transform="matrix(.04297 0 0 .04297 0 9.24)" fill="url(#h)" stroke-width="3" stroke-linecap="round" stroke="#212121"/><path d="M253.976-126.372c87.719 0 158.803 71.084 158.803 158.803 0 87.628-71.084 158.712-158.803 158.712-87.628 0-158.712-71.084-158.712-158.712 0-87.719 71.084-158.803 158.712-158.803zm0 0" transform="matrix(.04297 0 0 .04297 0 9.24)" fill="url(#i)" stroke-width="3" stroke-linecap="round" stroke="#212121"/><path d="M253.976-20.473c29.27 0 52.904 23.634 52.904 52.904 0 29.179-23.634 52.904-52.904 52.904-29.18 0-52.904-23.725-52.904-52.904 0-29.27 23.725-52.904 52.904-52.904zm0 0" transform="matrix(.04297 0 0 .04297 0 9.24)" fill="url(#j)" stroke-width="3" stroke-linecap="round" stroke="#212121"/></svg>
